assets/symbols/mulberry/hairbrush.svg

<svg height="850.394" viewBox="0 0 850.394 850.394" width="850.394" xmlns="http://www.w3.org/2000/svg"><g fill="#be0000"><path d="m710.31 420.9 2.69-30.75c1.03.75 1.99 1.51 2.89 2.28 5.36 4.61 9.521 9.3 12.75 13.8l-2.819 12.95 2.09.46v35.6c-24.98 20.38-83.83 28.95-132.74 28.95-60.78 0-113.26-15.58-137.82-38.12l-1.689-8.681-5.32-27.33c1.24-.34 2.46-.69 3.66-1.06 1.68-.83 3.41-1.72 5.18-2.66 4.63-2.44 9.521-5.19 14.5-8.01.471-.26.931-.52 1.4-.79 6.03-3.4 12.18-6.88 18.17-10.02 4.13-2.17 8.18-4.17 12.05-5.87.88-.39 1.75-.76 2.61-1.12 1.5-.62 3-1.21 4.51-1.79 4.14-1.57 8.33-2.99 12.561-4.28 13.859-4.26 28.149-7.18 42.35-9.98 21.36-4.2 53.05-2.88 74.1-.06 11.65 1.56 29.08 6.01 44.86 12.09 7.67 2.95 14.95 6.29 20.979 9.87l2.631 34.48z"/><path d="m740.07 432.43a24.04 24.04 0 0 0 -.07-1.43l15.23-46.44 1.649.54-9.3 56.99c0 36.851-68.34 66.93-152.65 66.93-92.97 0-140.37-39.27-140.37-39.27-3.399-3.4-28.93-15.26-95.68-15.26-38 0-111.83 2-145.4 18.79-23.68 11.85-59.67 20.3-87.56 14.13-48.21-10.66-52.74-43.4-36.14-64.61 26-33.2 69.7-27.98 97.42-27.45 67.61 1.3 194.23 33.48 263.14 14.71l5.32 27.33 1.689 8.681c24.561 22.54 77.04 38.12 137.82 38.12 48.91 0 107.76-8.57 132.74-28.95 7.852-6.401 12.362-13.971 12.162-22.811z"/></g><g fill="none"><g stroke="#000" stroke-miterlimit="10"><g stroke-width="14.091"><path d="m440.59 368.25 3.42 7 15.17 31.09 5.48 11.22m-5.22-66.21 11.23 33.15 4.41 13.04 1.96 5.79" stroke-linecap="round"/><path d="m469.13 377.46 1.54 7.04 3.01 13.83 7.14 32.75m.21-96.44 8.97 54.15m245.22-12.7-4.75 21.75-1.83 8.39-2.82 12.95-2.3 10.53m-8.78-59.47-1.74 19.91-2.69 30.75-.35 4.01m50.04-54.91-4.77 14.56-15.23 46.44" stroke-linecap="round"/><path d="m746.45 354.27-15.98 43.57-1.62 4.43m-3.99-63.99-8.97 54.15m-214.51-62.24 3.92 51.46.25 3.26m15.55-61.33 3.88 50.88.29 3.84m13.48-67.12 2.63 54.81m17.53-55.41 2.63 54.82m15.96-59.9 2.64 54.83m17.53-55.41 2.62 54.81m16.92-53.68 2.64 54.83m17.52-55.41 2.64 54.81m19.11-49.79 2.63 54.82m20.44-48.34-2.64 54.82m23.78-47.84-7.65 54.35m-203.98-.15 1.55 9.37 7.41 44.78m11.38-58.6.38 5.04 3.79 49.68m15.97-55.88 4.17 54.72m14.85-48.86 8.96 54.14m11.38-58.59 4.17 54.72m15.96-55.88 4.18 54.72m11.78-55.89 8.96 54.15m11.38-58.6 4.18 54.72m15.95-55.88 4.18 54.72m12.97-48.98 8.96 54.15m11.38-58.6.7 9.21 3.48 45.51m15.95-55.88 1.55 20.24 2.63 34.48" stroke-linecap="round"/><path d="m756.88 385.1-9.3 56.99c0 36.851-68.34 66.93-152.65 66.93-92.97 0-140.37-39.27-140.37-39.27-3.399-3.4-28.93-15.26-95.68-15.26-38 0-111.83 2-145.4 18.79-23.68 11.85-59.67 20.3-87.56 14.13-48.21-10.66-52.74-43.4-36.14-64.61 26-33.2 69.7-27.98 97.42-27.45 67.61 1.3 194.23 33.48 263.14 14.71 1.24-.34 2.46-.69 3.66-1.06" stroke-linecap="square"/><path d="m443.6 375.45 6.74 34.61 5.32 27.33 1.689 8.681c24.561 22.54 77.04 38.12 137.82 38.12 48.91 0 107.76-8.57 132.74-28.95 7.85-6.4 12.359-13.971 12.16-22.811a24.04 24.04 0 0 0 -.07-1.43m-270.779-19.74 3.82 42.97m16.4-31.85v41.1m18.56-35.23v40.51m21.06-34.05v37.57m20.46-34.64v37.58m20.55-35.23v37.58m18.79-37.58v37.58m19.96-37.58v37.58m21.14-37.58v37.58m19.37-41.1v37.57m20.55-40.8v37.58m18.1-44.43v37.58m19.38-41.1v37.57m20.55-40.8v37.58" stroke-linecap="square"/></g><path d="m454 409c1.68-.83 3.41-1.72 5.18-2.66 4.63-2.44 9.521-5.19 14.5-8.01.471-.26.931-.52 1.4-.79 6.03-3.4 12.18-6.88 18.17-10.02 4.13-2.17 8.18-4.17 12.05-5.87.88-.39 1.75-.76 2.61-1.12 1.5-.62 3-1.21 4.51-1.79 4.14-1.57 8.33-2.99 12.561-4.28 13.859-4.26 28.149-7.18 42.35-9.98 21.36-4.2 53.05-2.88 74.1-.06 11.65 1.56 29.08 6.01 44.86 12.09 7.67 2.95 14.95 6.29 20.979 9.87 2.07 1.23 3.99 2.48 5.73 3.77 1.03.75 1.99 1.51 2.89 2.28 5.36 4.61 9.521 9.3 12.75 13.8 8.28 11.54 10.471 21.8 11.431 26.2.229 1.061.39 1.78.54 2.101" stroke-width="14"/></g><path d="m0 0h850.394v850.394h-850.394z"/></g></svg>

<svg xmlns="http://www.w3.org/2000/svg" width="850.394" height="850.394" viewBox="0 0 850.394 850.394" overflow="visible"><g fill="#be0000"><path d="M710.31 420.9l2.69-30.75c1.03.75 1.99 1.51 2.89 2.28 5.36 4.61 9.521 9.3 12.75 13.8l-2.819 12.95 2.09.46v35.6c-24.98 20.38-83.83 28.95-132.74 28.95-60.78 0-113.26-15.58-137.82-38.12l-1.689-8.681-5.32-27.33c1.24-.34 2.46-.69 3.66-1.06 1.68-.83 3.41-1.72 5.18-2.66 4.63-2.44 9.521-5.19 14.5-8.01.471-.26.931-.52 1.4-.79 6.03-3.4 12.18-6.88 18.17-10.02 4.13-2.17 8.18-4.17 12.05-5.87.88-.39 1.75-.76 2.61-1.12 1.5-.62 3-1.21 4.51-1.79 4.14-1.57 8.33-2.99 12.561-4.28 13.859-4.26 28.149-7.18 42.35-9.98 21.36-4.2 53.05-2.88 74.1-.06 11.65 1.56 29.08 6.01 44.86 12.09 7.67 2.95 14.95 6.29 20.979 9.87l2.631 34.48.407.041z"/><path d="M740.07 432.43A24.04 24.04 0 0 0 740 431l15.23-46.44 1.649.54-9.3 56.99c0 36.851-68.34 66.93-152.65 66.93-92.97 0-140.37-39.27-140.37-39.27-3.399-3.4-28.93-15.26-95.68-15.26-38 0-111.83 2-145.4 18.79-23.68 11.85-59.67 20.3-87.56 14.13-48.21-10.66-52.74-43.4-36.14-64.61 26-33.2 69.7-27.98 97.42-27.45 67.61 1.3 194.23 33.48 263.14 14.71l5.32 27.33 1.689 8.681c24.561 22.54 77.04 38.12 137.82 38.12 48.91 0 107.76-8.57 132.74-28.95 7.852-6.401 12.362-13.971 12.162-22.811z"/></g><g fill="none" stroke="#000" stroke-miterlimit="10"><path stroke-width="14.091" stroke-linecap="round" d="M440.59 368.25l3.42 7 15.17 31.09 5.48 11.22M459.44 351.35l11.23 33.15 4.41 13.04 1.96 5.79"/><path stroke-width="14.091" stroke-linecap="round" d="M469.13 377.46l1.54 7.04 3.01 13.83 7.14 32.75M481.03 334.64l8.97 54.15M735.22 376.09l-4.75 21.75-1.83 8.39-2.82 12.95-2.3 10.53M714.74 370.24L713 390.15l-2.69 30.75-.35 4.01M760 370l-4.77 14.56L740 431"/><path stroke-width="14.091" stroke-linecap="round" d="M746.45 354.27l-15.98 43.57-1.62 4.43M724.86 338.28l-8.97 54.15M501.38 330.19l3.92 51.46.25 3.26M521.1 323.58l3.88 50.88.29 3.84M538.75 311.18l2.63 54.81M558.91 310.58l2.63 54.82M577.5 305.5l2.64 54.83M597.67 304.92l2.62 54.81M617.21 306.05l2.64 54.83M637.37 305.47l2.64 54.81M659.12 310.49l2.63 54.82M682.19 316.97l-2.64 54.82M703.33 323.95l-7.65 54.35M491.7 378.15l1.55 9.37 7.41 44.78M512.04 373.7l.38 5.04 3.79 49.68M532.18 372.54l4.17 54.72M551.2 378.4l8.96 54.14M571.54 373.95l4.17 54.72M591.67 372.79l4.18 54.72M607.63 371.62l8.96 54.15M627.97 367.17l4.18 54.72M648.1 366.01l4.18 54.72M665.25 371.75l8.96 54.15M685.59 367.3l.7 9.21 3.48 45.51M705.72 366.14l1.55 20.24 2.63 34.48"/><path d="M756.88 385.1l-9.3 56.99c0 36.851-68.34 66.93-152.65 66.93-92.97 0-140.37-39.27-140.37-39.27-3.399-3.4-28.93-15.26-95.68-15.26-38 0-111.83 2-145.4 18.79-23.68 11.85-59.67 20.3-87.56 14.13-48.21-10.66-52.74-43.4-36.14-64.61 26-33.2 69.7-27.98 97.42-27.45 67.61 1.3 194.23 33.48 263.14 14.71 1.24-.34 2.46-.69 3.66-1.06" stroke-width="14.091" stroke-linecap="square"/><path d="M443.6 375.45l6.74 34.61 5.32 27.33 1.689 8.681c24.561 22.54 77.04 38.12 137.82 38.12 48.91 0 107.76-8.57 132.74-28.95 7.85-6.4 12.359-13.971 12.16-22.811a24.04 24.04 0 0 0-.07-1.43M469.22 411.26l3.82 42.97M489.44 422.38v41.1M508 428.25v40.51M529.06 434.71v37.57M549.52 437.64v37.58M570.07 439.99v37.58M588.86 439.99v37.58M608.82 439.99v37.58M629.96 439.99v37.58M649.33 436.47v37.57M669.88 433.24v37.58M687.98 426.39v37.58M707.36 422.87v37.57M727.91 419.64v37.58" stroke-width="14.091" stroke-linecap="square"/><path d="M454 409c1.68-.83 3.41-1.72 5.18-2.66 4.63-2.44 9.521-5.19 14.5-8.01.471-.26.931-.52 1.4-.79 6.03-3.4 12.18-6.88 18.17-10.02 4.13-2.17 8.18-4.17 12.05-5.87.88-.39 1.75-.76 2.61-1.12 1.5-.62 3-1.21 4.51-1.79 4.14-1.57 8.33-2.99 12.561-4.28 13.859-4.26 28.149-7.18 42.35-9.98 21.36-4.2 53.05-2.88 74.1-.06 11.65 1.56 29.08 6.01 44.86 12.09 7.67 2.95 14.95 6.29 20.979 9.87 2.07 1.23 3.99 2.48 5.73 3.77 1.03.75 1.99 1.51 2.89 2.28 5.36 4.61 9.521 9.3 12.75 13.8 8.28 11.54 10.471 21.8 11.431 26.2.229 1.061.39 1.78.54 2.101" stroke-width="14"/></g><path fill="none" d="M0 0h850.394v850.394H0z"/></svg>
